M104 S210
;FLAVOR:Marlin
;TIME:6666
;Filament used: 0m
;Layer height: 0.3
;MINX:2.14748e+06
;MINY:2.14748e+06
;MINZ:2.14748e+06
;MAXX:-2.14748e+06
;MAXY:-2.14748e+06
;MAXZ:-2.14748e+06
;Generated with Cura_SteamEngine master
M104 S210
M105
M109 S210
M82 ;absolute extrusion mode
G92 E0
G92 E0
G1 F2400 E-4.5
;LAYER_COUNT:100
;LAYER:0
M107
G0 F3600 X8.571 Y29.388 Z0.3
;TYPE:SKIRT
G1 F2400 E0
G1 F1800 X9.472 Y29.191 E0.04601
G1 X10.361 Y29.115 E0.09053
G1 X10.861 Y29.102 E0.11548
G1 X64.005 Y29.103 E2.76685
G1 X64.807 Y29.117 E2.80686
G1 X65.558 Y29.193 E2.84452
G1 X66.446 Y29.392 E2.88992
G1 X67.291 Y29.703 E2.93485
G1 X68.08 Y30.116 E2.97928
G1 X68.816 Y30.631 E3.02409
G1 X69.486 Y31.247 E3.0695
G1 X70.054 Y31.926 E3.11366
G1 X70.549 Y32.708 E3.15984
G1 X70.917 Y33.499 E3.20336
G1 X71.189 Y34.367 E3.24874
G1 X71.288 Y34.853 E3.27349
G1 X71.357 Y35.361 E3.29906
G1 X71.392 Y36.019 E3.33194
G1 X71.4 Y36.604 E3.36113
G1 X71.395 Y43.532 E3.70677
G1 X71.38 Y44.349 E3.74753
G1 X71.306 Y45.061 E3.78325
G1 X71.112 Y45.931 E3.82772
G1 X70.801 Y46.783 E3.87297
G1 X70.389 Y47.572 E3.91737
G1 X69.872 Y48.31 E3.96233
G1 X69.254 Y48.985 E4.00799
G1 X68.564 Y49.561 E4.05283
G1 X67.785 Y50.053 E4.0988
G1 X66.994 Y50.419 E4.14228
G1 X66.129 Y50.69 E4.1875
G1 X65.646 Y50.788 E4.21209
G1 X65.139 Y50.857 E4.23762
G1 X64.479 Y50.892 E4.27059
G1 X63.884 Y50.9 E4.30028
G1 X10.958 Y50.895 E6.94077
G1 X10.145 Y50.88 E6.98134
G1 X9.428 Y50.804 E7.01731
G1 X8.558 Y50.609 E7.06179
G1 X7.708 Y50.297 E7.10696
G1 X6.917 Y49.882 E7.15153
G1 X6.185 Y49.369 E7.19612
G1 X5.513 Y48.752 E7.24164
G1 X4.938 Y48.064 E7.28637
G1 X4.446 Y47.284 E7.33238
G1 X4.08 Y46.492 E7.37591
G1 X3.801 Y45.589 E7.42306
G1 X3.712 Y45.146 E7.4456
G1 X3.643 Y44.64 E7.47108
G1 X3.628 Y44.463 E7.47994
G1 X3.604 Y43.863 E7.5099
G1 X3.6 Y36.679 E7.86831
G1 X3.612 Y36.004 E7.90199
G1 X3.651 Y35.28 E7.93817
G1 X3.722 Y34.785 E7.96311
G1 X3.849 Y34.202 E7.99288
G1 X4.08 Y33.502 E8.02966
G1 X4.467 Y32.676 E8.07517
G1 X4.973 Y31.89 E8.1218
G1 X5.521 Y31.241 E8.16418
G1 X6.197 Y30.623 E8.20988
G1 X6.931 Y30.109 E8.25458
G1 X7.739 Y29.692 E8.29994
G1 X8.571 Y29.388 E8.34414
G1 F2400 E3.84414
;MESH:/model.stl
G0 F3600 X10.388 Y30.342
G0 X10.481 Y31.621
G0 X64.648 Y31.702
G0 X64.653 Y31.603
;TYPE:WALL-INNER
G1 F2400 E8.34414
G1 F1800 X65.235 Y31.663 E8.37333
G1 X65.792 Y31.795 E8.40189
G1 X66.335 Y32.002 E8.43088
G1 X66.841 Y32.276 E8.45959
G1 X67.302 Y32.609 E8.48796
G1 X67.726 Y33.01 E8.51707
G1 X68.081 Y33.446 E8.54512
G1 X68.386 Y33.942 E8.57417
G1 X68.621 Y34.469 E8.60296
G1 X68.787 Y35.024 E8.63186
G1 X68.878 Y35.591 E8.66051
G1 X68.9 Y36.01 E8.68144
G1 X68.895 Y44.183 E9.0892
G1 X68.837 Y44.735 E9.11689
G1 X68.705 Y45.292 E9.14545
G1 X68.498 Y45.835 E9.17444
G1 X68.224 Y46.341 E9.20315
G1 X67.891 Y46.802 E9.23152
G1 X67.49 Y47.226 E9.26063
G1 X67.054 Y47.581 E9.28869
G1 X66.558 Y47.886 E9.31773
G1 X66.031 Y48.121 E9.34652
G1 X65.476 Y48.287 E9.37542
G1 X64.909 Y48.378 E9.40407
G1 X64.488 Y48.4 E9.42511
G1 X10.317 Y48.395 E12.12771
G1 X9.765 Y48.337 E12.1554
G1 X9.208 Y48.205 E12.18396
G1 X8.665 Y47.998 E12.21295
G1 X8.159 Y47.724 E12.24166
G1 X7.698 Y47.391 E12.27003
G1 X7.274 Y46.99 E12.29915
G1 X6.918 Y46.552 E12.3273
G1 X6.614 Y46.058 E12.35624
G1 X6.379 Y45.531 E12.38503
G1 X6.213 Y44.976 E12.41393
G1 X6.122 Y44.409 E12.44258
G1 X6.1 Y43.99 E12.46351
G1 X6.1 Y36.021 E12.86109
G1 X6.135 Y35.454 E12.88943
G1 X6.242 Y34.896 E12.91778
G1 X6.426 Y34.343 E12.94685
G1 X6.677 Y33.825 E12.97557
G1 X6.993 Y33.345 E13.00424
G1 X7.364 Y32.917 E13.0325
G1 X7.804 Y32.526 E13.06187
G1 X8.274 Y32.208 E13.09018
G1 X8.789 Y31.949 E13.11894
G1 X9.334 Y31.76 E13.14772
G1 X9.901 Y31.644 E13.17659
G1 X10.481 Y31.602 E13.2056
G1 X64.653 Y31.603 E15.90825
G0 F3600 X64.674 Y31.203
;TYPE:WALL-OUTER
G1 F1800 X65.299 Y31.267 E15.9396
G1 X65.915 Y31.413 E15.97118
G1 X66.499 Y31.636 E16.00237
G1 X67.052 Y31.935 E16.03373
G1 X67.562 Y32.304 E16.06514
G1 X68.015 Y32.732 E16.09623
G1 X68.412 Y33.22 E16.12762
G1 X68.738 Y33.75 E16.15866
G1 X68.997 Y34.331 E16.1904
G1 X69.178 Y34.935 E16.22185
G1 X69.276 Y35.545 E16.25268
G1 X69.3 Y36.01 E16.27591
G1 X69.295 Y44.206 E16.68481
G1 X69.233 Y44.799 E16.71455
G1 X69.087 Y45.415 E16.74614
G1 X68.864 Y45.999 E16.77732
G1 X68.565 Y46.552 E16.80869
G1 X68.196 Y47.062 E16.84009
G1 X67.768 Y47.515 E16.87119
G1 X67.28 Y47.912 E16.90257
G1 X66.75 Y48.238 E16.93362
G1 X66.169 Y48.497 E16.96535
G1 X65.565 Y48.678 E16.99681
G1 X64.955 Y48.776 E17.02763
G1 X64.49 Y48.8 E17.05086
G1 X10.294 Y48.795 E19.75471
G1 X9.701 Y48.733 E19.78446
G1 X9.085 Y48.587 E19.81604
G1 X8.501 Y48.364 E19.84723
G1 X7.948 Y48.065 E19.87859
G1 X7.438 Y47.696 E19.91
G1 X6.985 Y47.268 E19.94109
G1 X6.588 Y46.78 E19.97248
G1 X6.262 Y46.25 E20.00352
G1 X6.003 Y45.669 E20.03526
G1 X5.822 Y45.065 E20.06671
G1 X5.724 Y44.455 E20.09754
G1 X5.7 Y43.99 E20.12077
G1 X5.7 Y36.012 E20.51879
G1 X5.738 Y35.401 E20.54933
G1 X5.854 Y34.793 E20.58021
G1 X6.054 Y34.192 E20.61181
G1 X6.327 Y33.629 E20.64303
G1 X6.673 Y33.104 E20.6744
G1 X7.081 Y32.633 E20.70549
G1 X7.555 Y32.212 E20.73712
G1 X8.072 Y31.862 E20.76826
G1 X8.635 Y31.579 E20.7997
G1 X9.228 Y31.373 E20.83102
G1 X9.846 Y31.247 E20.86249
G1 X10.466 Y31.202 E20.8935
G1 X64.674 Y31.203 E23.59795
G0 F3600 X64.873 Y31.223
G0 X64.632 Y31.993
;TYPE:SKIN
G1 F1800 X65.167 Y32.049 E23.62478
G1 X65.676 Y32.169 E23.65087
G1 X66.178 Y32.36 E23.67767
G1 X66.63 Y32.604 E23.7033
G1 X67.055 Y32.913 E23.72951
G1 X67.441 Y33.277 E23.75598
G1 X67.759 Y33.668 E23.78113
G1 X68.04 Y34.123 E23.80781
G1 X68.254 Y34.605 E23.83412
G1 X68.407 Y35.115 E23.86068
G1 X68.489 Y35.627 E23.88655
G1 X68.51 Y36.03 E23.90668
G1 X68.505 Y44.161 E24.31234
G1 X68.452 Y44.666 E24.33767
G1 X68.332 Y45.176 E24.36381
G1 X68.14 Y45.678 E24.39063
G1 X67.896 Y46.13 E24.41625
G1 X67.587 Y46.555 E24.44247
G1 X67.223 Y46.941 E24.46894
G1 X66.832 Y47.259 E24.49408
G1 X66.377 Y47.54 E24.52076
G1 X65.895 Y47.754 E24.54707
G1 X65.385 Y47.907 E24.57364
G1 X64.873 Y47.989 E24.59951
G1 X64.468 Y48.01 E24.61974
G1 X10.338 Y48.005 E27.3203
G1 X9.834 Y47.952 E27.34558
G1 X9.324 Y47.832 E27.37172
G1 X8.822 Y47.64 E27.39853
G1 X8.37 Y47.396 E27.42416
G1 X7.945 Y47.087 E27.45037
G1 X7.559 Y46.723 E27.47684
G1 X7.24 Y46.331 E27.50206
G1 X6.96 Y45.877 E27.52867
G1 X6.746 Y45.395 E27.55498
G1 X6.593 Y44.885 E27.58154
G1 X6.511 Y44.373 E27.60741
G1 X6.49 Y43.97 E27.62755
G1 X6.49 Y36.045 E28.02293
G1 X6.524 Y35.498 E28.05027
G1 X6.621 Y34.993 E28.07592
G1 X6.787 Y34.491 E28.1023
G1 X7.015 Y34.021 E28.12836
G1 X7.307 Y33.578 E28.15484
G1 X7.64 Y33.194 E28.18019
G1 X8.045 Y32.835 E28.20719
G1 X8.468 Y32.548 E28.2327
G1 X8.943 Y32.308 E28.25925
G1 X9.442 Y32.136 E28.28558
G1 X9.961 Y32.03 E28.31201
G1 X10.481 Y31.992 E28.33802
G1 X64.632 Y31.993 E31.03962
G0 F3600 X68.102 Y34.726
G1 F1800 X65.775 Y32.4 E31.20377
G0 F3600 X65.024 Y32.215
G1 F1800 X68.282 Y35.472 E31.43361
G0 F3600 X68.329 Y36.085
G1 F1800 X64.417 Y32.173 E31.70962
G0 F3600 X63.851 Y32.173
G1 F1800 X68.329 Y36.651 E32.02557
G0 F3600 X68.329 Y37.216
G1 F1800 X63.286 Y32.173 E32.38138
G0 F3600 X62.72 Y32.173
G1 F1800 X68.329 Y37.782 E32.77712
G0 F3600 X68.328 Y38.347
G1 F1800 X62.154 Y32.173 E33.21273
G0 F3600 X61.589 Y32.173
G1 F1800 X68.328 Y38.912 E33.6882
G0 F3600 X68.327 Y39.477
G1 F1800 X61.023 Y32.173 E34.20354
G0 F3600 X60.457 Y32.173
G1 F1800 X68.327 Y40.043 E34.75881
G0 F3600 X68.327 Y40.608
G1 F1800 X59.891 Y32.173 E35.35398
G0 F3600 X59.326 Y32.173
G1 F1800 X68.326 Y41.173 E35.98898
G0 F3600 X68.326 Y41.739
G1 F1800 X58.76 Y32.173 E36.66391
G0 F3600 X58.194 Y32.173
G1 F1800 X68.325 Y42.304 E37.37871
G0 F3600 X68.325 Y42.869
G1 F1800 X57.629 Y32.173 E38.13337
G0 F3600 X57.063 Y32.173
G1 F1800 X68.324 Y43.434 E38.92789
G0 F3600 X68.324 Y44
G1 F1800 X56.497 Y32.173 E39.76235
G0 F3600 X55.932 Y32.173
G1 F1800 X68.285 Y44.526 E40.63392
G0 F3600 X68.188 Y44.995
G1 F1800 X55.366 Y32.173 E41.53859
G0 F3600 X54.8 Y32.173
G1 F1800 X68.046 Y45.418 E42.47313
G0 F3600 X67.866 Y45.804
G1 F1800 X54.235 Y32.173 E43.43487
G0 F3600 X53.669 Y32.173
G1 F1800 X67.653 Y46.157 E44.42151
G0 F3600 X67.409 Y46.479
G1 F1800 X53.103 Y32.173 E45.43088
G0 F3600 X52.538 Y32.173
G1 F1800 X67.136 Y46.771 E46.46085
G0 F3600 X66.828 Y47.029
G1 F1800 X51.972 Y32.173 E47.50902
G0 F3600 X51.406 Y32.173
G1 F1800 X66.491 Y47.258 E48.57335
G0 F3600 X66.122 Y47.455
G1 F1800 X50.84 Y32.173 E49.65158
G0 F3600 X50.275 Y32.173
G1 F1800 X65.719 Y47.617 E50.74123
G0 F3600 X65.277 Y47.741
G1 F1800 X49.709 Y32.173 E51.83964
G0 F3600 X49.143 Y32.173
G1 F1800 X64.783 Y47.813 E52.94313
G0 F3600 X64.234 Y47.829
G1 F1800 X48.578 Y32.173 E54.04774
G0 F3600 X48.012 Y32.173
G1 F1800 X63.668 Y47.829 E55.15236
G0 F3600 X63.102 Y47.829
G1 F1800 X47.446 Y32.173 E56.25697
G0 F3600 X46.881 Y32.173
G1 F1800 X62.537 Y47.829 E57.36159
G0 F3600 X61.971 Y47.829
G1 F1800 X46.314 Y32.172 E58.46627
G0 F3600 X45.749 Y32.172
G1 F1800 X61.405 Y47.829 E59.57092
G0 F3600 X60.84 Y47.829
G1 F1800 X45.183 Y32.172 E60.67561
G0 F3600 X44.617 Y32.172
G1 F1800 X60.274 Y47.829 E61.7803
G0 F3600 X59.708 Y47.829
G1 F1800 X44.052 Y32.172 E62.88495
G0 F3600 X43.486 Y32.172
G1 F1800 X59.143 Y47.829 E63.98963
G0 F3600 X58.577 Y47.829
G1 F1800 X42.92 Y32.172 E65.09432
G0 F3600 X42.354 Y32.172
G1 F1800 X58.011 Y47.829 E66.199
G0 F3600 X57.445 Y47.828
G1 F1800 X41.789 Y32.172 E67.30362
G0 F3600 X41.223 Y32.172
G1 F1800 X56.879 Y47.828 E68.40823
G0 F3600 X56.313 Y47.828
G1 F1800 X40.657 Y32.172 E69.51285
G0 F3600 X40.092 Y32.172
G1 F1800 X55.748 Y47.828 E70.61747
G0 F3600 X55.182 Y47.828
G1 F1800 X39.526 Y32.172 E71.72208
G0 F3600 X38.96 Y32.172
G1 F1800 X54.616 Y47.828 E72.8267
G0 F3600 X54.051 Y47.828
G1 F1800 X38.395 Y32.172 E73.93131
G0 F3600 X37.829 Y32.172
G1 F1800 X53.485 Y47.828 E75.03593
G0 F3600 X52.919 Y47.828
G1 F1800 X37.263 Y32.172 E76.14054
G0 F3600 X36.698 Y32.172
G1 F1800 X52.354 Y47.828 E77.24516
G0 F3600 X51.788 Y47.828
G1 F1800 X36.132 Y32.172 E78.34977
G0 F3600 X35.566 Y32.172
G1 F1800 X51.222 Y47.828 E79.45439
G0 F3600 X50.656 Y47.827
G1 F1800 X35.001 Y32.172 E80.55893
G0 F3600 X34.435 Y32.172
G1 F1800 X50.09 Y47.827 E81.66348
G0 F3600 X49.525 Y47.827
G1 F1800 X33.869 Y32.172 E82.76806
G0 F3600 X33.304 Y32.172
G1 F1800 X48.959 Y47.827 E83.8726
G0 F3600 X48.393 Y47.827
G1 F1800 X32.738 Y32.172 E84.97715
G0 F3600 X32.172 Y32.172
G1 F1800 X47.827 Y47.827 E86.08169
G0 F3600 X47.262 Y47.827
G1 F1800 X31.606 Y32.172 E87.18627
G0 F3600 X31.041 Y32.172
G1 F1800 X46.696 Y47.827 E88.29082
G0 F3600 X46.13 Y47.827
G1 F1800 X30.475 Y32.172 E89.39536
G0 F3600 X29.909 Y32.172
G1 F1800 X45.565 Y47.827 E90.49994
G0 F3600 X44.999 Y47.827
G1 F1800 X29.344 Y32.172 E91.60449
G0 F3600 X28.778 Y32.172
G1 F1800 X44.433 Y47.827 E92.70903
G0 F3600 X43.867 Y47.827
G1 F1800 X28.212 Y32.171 E93.81361
G0 F3600 X27.646 Y32.171
G1 F1800 X43.301 Y47.827 E94.91819
G0 F3600 X42.736 Y47.827
G1 F1800 X27.08 Y32.171 E96.02281
G0 F3600 X26.515 Y32.171
G1 F1800 X42.17 Y47.827 E97.12739
G0 F3600 X41.604 Y47.827
G1 F1800 X25.949 Y32.171 E98.23197
G0 F3600 X25.383 Y32.171
G1 F1800 X41.039 Y47.827 E99.33658
G0 F3600 X40.473 Y47.827
G1 F1800 X24.818 Y32.171 E100.44116
G0 F3600 X24.252 Y32.171
G1 F1800 X39.907 Y47.827 E101.54574
G0 F3600 X39.342 Y47.827
G1 F1800 X23.686 Y32.171 E102.65036
G0 F3600 X23.12 Y32.171
G1 F1800 X38.776 Y47.827 E103.75497
G0 F3600 X38.21 Y47.827
G1 F1800 X22.555 Y32.171 E104.85955
G0 F3600 X21.989 Y32.171
G1 F1800 X37.644 Y47.827 E105.96413
G0 F3600 X37.078 Y47.826
G1 F1800 X21.423 Y32.171 E107.06868
G0 F3600 X20.858 Y32.171
G1 F1800 X36.512 Y47.826 E108.17319
G0 F3600 X35.947 Y47.826
G1 F1800 X20.292 Y32.171 E109.27773
G0 F3600 X19.726 Y32.171
G1 F1800 X35.381 Y47.826 E110.38228
G0 F3600 X34.815 Y47.826
G1 F1800 X19.161 Y32.171 E111.48679
G0 F3600 X18.595 Y32.171
G1 F1800 X34.25 Y47.826 E112.59133
G0 F3600 X33.684 Y47.826
G1 F1800 X18.029 Y32.171 E113.69588
G0 F3600 X17.464 Y32.171
G1 F1800 X33.118 Y47.826 E114.80039
G0 F3600 X32.553 Y47.826
G1 F1800 X16.898 Y32.171 E115.90493
G0 F3600 X16.332 Y32.171
G1 F1800 X31.987 Y47.826 E117.00948
G0 F3600 X31.421 Y47.826
G1 F1800 X15.767 Y32.171 E118.11399
G0 F3600 X15.201 Y32.171
G1 F1800 X30.856 Y47.826 E119.21853
G0 F3600 X30.289 Y47.825
G1 F1800 X14.635 Y32.171 E120.323
G0 F3600 X14.07 Y32.171
G1 F1800 X29.723 Y47.825 E121.42744
G0 F3600 X29.158 Y47.825
G1 F1800 X13.504 Y32.171 E122.53192
G0 F3600 X12.938 Y32.171
G1 F1800 X28.592 Y47.825 E123.63639
G0 F3600 X28.026 Y47.825
G1 F1800 X12.372 Y32.171 E124.74087
G0 F3600 X11.807 Y32.171
G1 F1800 X27.461 Y47.825 E125.84534
G0 F3600 X26.895 Y47.825
G1 F1800 X11.241 Y32.171 E126.94981
G0 F3600 X10.675 Y32.171
G1 F1800 X26.329 Y47.825 E128.05429
G0 F3600 X25.764 Y47.825
G1 F1800 X10.134 Y32.196 E129.15703
G0 F3600 X9.65 Y32.278
G1 F1800 X25.198 Y47.825 E130.25399
G0 F3600 X24.632 Y47.825
G1 F1800 X9.212 Y32.405 E131.34196
G0 F3600 X8.815 Y32.574
G1 F1800 X24.067 Y47.825 E132.41803
G0 F3600 X23.5 Y47.825
G1 F1800 X8.452 Y32.776 E133.47979
G0 F3600 X8.119 Y33.009
G1 F1800 X22.935 Y47.825 E134.52514
G0 F3600 X22.369 Y47.825
G1 F1800 X7.82 Y33.276 E135.55165
G0 F3600 X7.549 Y33.571
G1 F1800 X21.803 Y47.825 E136.55734
G0 F3600 X21.237 Y47.825
G1 F1800 X7.31 Y33.897 E137.54
G0 F3600 X7.1 Y34.253
G1 F1800 X20.672 Y47.825 E138.49758
G0 F3600 X20.106 Y47.825
G1 F1800 X6.924 Y34.643 E139.42764
G0 F3600 X6.788 Y35.073
G1 F1800 X19.54 Y47.825 E140.32737
G0 F3600 X18.975 Y47.825
G1 F1800 X6.701 Y35.551 E141.19336
G0 F3600 X6.669 Y36.085
G1 F1800 X18.409 Y47.825 E142.02168
G0 F3600 X17.843 Y47.825
G1 F1800 X6.669 Y36.65 E142.8101
G0 F3600 X6.669 Y37.216
G1 F1800 X17.278 Y47.825 E143.55863
G0 F3600 X16.711 Y47.824
G1 F1800 X6.669 Y37.782 E144.26714
G0 F3600 X6.669 Y38.347
G1 F1800 X16.146 Y47.824 E144.9358
G0 F3600 X15.58 Y47.824
G1 F1800 X6.669 Y38.913 E145.56452
G0 F3600 X6.669 Y39.479
G1 F1800 X15.014 Y47.824 E146.1533
G0 F3600 X14.449 Y47.824
G1 F1800 X6.669 Y40.044 E146.70222
G0 F3600 X6.669 Y40.61
G1 F1800 X13.883 Y47.824 E147.21121
G0 F3600 X13.317 Y47.824
G1 F1800 X6.669 Y41.176 E147.68026
G0 F3600 X6.669 Y41.741
G1 F1800 X12.751 Y47.824 E148.10941
G0 F3600 X12.186 Y47.824
G1 F1800 X6.669 Y42.307 E148.49867
G0 F3600 X6.669 Y42.873
G1 F1800 X11.62 Y47.824 E148.84799
G0 F3600 X11.054 Y47.824
G1 F1800 X6.669 Y43.438 E149.15741
G0 F3600 X6.672 Y44.007
G1 F1800 X10.489 Y47.824 E149.42672
G0 F3600 X9.874 Y47.774
G1 F1800 X6.734 Y44.635 E149.64823
G1 X6.706 Y44.607
G0 F3600 X6.955 Y45.421
G1 F1800 X9.077 Y47.543 E149.79795
G1 X9.105 Y47.571
;MESH:NONMESH
G0 F600 X9.105 Y47.571 Z0.6
G0 F3600 X64.976 Y31.736
G0 X64.987 Y31.628
;TIME_ELAPSED:107.182891
;LAYER:1
M106 S255
;TYPE:WALL-INNER
;MESH:/model.stl
G1 F1950 X65.449 Y31.705 E149.82131
G1 X65.926 Y31.839 E149.84603
G1 X66.358 Y32.012 E149.86925
G1 X66.794 Y32.247 E149.89396
G1 X67.174 Y32.507 E149.91693
G1 X67.542 Y32.824 E149.94116
G1 X67.872 Y33.175 E149.9652
G1 X68.167 Y33.57 E149.98979
G1 X68.399 Y33.963 E150.01256
G1 X68.602 Y34.418 E150.03742
G1 X68.749 Y34.857 E150.06052
G1 X68.847 Y35.341 E150.08515
G1 X68.895 Y35.812 E150.10877
G1 X68.9 Y43.989 E150.51673
G1 X68.872 Y44.487 E150.54161
G1 X68.796 Y44.945 E150.56477
G1 X68.661 Y45.426 E150.5897
G1 X68.488 Y45.858 E150.61291
G1 X68.253 Y46.294 E150.63762
G1 X67.993 Y46.674 E150.6606
G1 X67.676 Y47.042 E150.68483
G1 X67.325 Y47.372 E150.70886
G1 X66.93 Y47.667 E150.73346
G1 X66.537 Y47.899 E150.75623
G1 X66.082 Y48.102 E150.78108
G1 X65.643 Y48.249 E150.80418
G1 X65.159 Y48.347 E150.82882
G1 X64.688 Y48.395 E150.85244
G1 X10.516 Y48.4 E153.55509
G1 X10.013 Y48.372 E153.58022
G1 X9.551 Y48.295 E153.60359
G1 X9.074 Y48.161 E153.62831
G1 X8.642 Y47.988 E153.65153
G1 X8.206 Y47.753 E153.67624
G1 X7.826 Y47.493 E153.69921
G1 X7.458 Y47.176 E153.72344
G1 X7.128 Y46.825 E153.74748
G1 X6.833 Y46.43 E153.77207
G1 X6.601 Y46.037 E153.79484
G1 X6.398 Y45.582 E153.8197
G1 X6.251 Y45.143 E153.84279
G1 X6.153 Y44.659 E153.86743
G1 X6.105 Y44.188 E153.89105
G1 X6.1 Y36.011 E154.299
G1 X6.128 Y35.513 E154.32389
G1 X6.205 Y35.051 E154.34725
